X:1
T:Title
%%score { ( 1 3 ) | ( 2 4 ) }
L:1/8
Q:1/4=112
M:4/4
K:G
V:1 treble nm="Grand Piano"
V:3 treble 
V:2 treble 
V:4 treble 
V:1
 B4 c2 B2 | [FB]4 [FA]2 [FA]2 | [Fd]4 [FA]2 [Fc]2 | [DGB]6 [DGB]2 | A6 z2 |[M:3/4] [EGB]2 [Ge]4 | %6
w: Harvey~E.~Bruce * *||||||
[M:1/4] [Ge]2 |[M:4/4] ^c3 B A2 e2 | [Fd]6 z2 | d4 e2 B2 | [Ed]4 [Ec]2 [Ec]2 | e4 A2 e2 | %12
w: ||||||
[M:3/4] [Fd]6 |[M:1/4] [Fd]2 |[M:4/4] d4 G2 d2 | [Ee]2 [Ec]4 E2 | B2 B4 A2 | [B,G]6 z2 | %18
w: ||||||
[M:6/8][Q:1/4=87] z .D2 z3 | [CA]B-[DB-] [DB-][D-B]D | DDF EDA | z c2- c2 z | z .e2 z3 | %23
w: |||||
 [Fe]/[Fe]/ed c B2 | B/B/[EA]<[Ec] EBB- |[M:5/8] B/A/[B,G]- [B,G]3 |] %26
w: |||
V:2
 [G,DG]4 [G,EG]2 [G,DG]2 | [D,D]4 [D,C]2 [D,C]2 | [D,A,]4 [D,D]2 [D,D]2 | G,6 G,2 | z4 ^D2 F,2 | %5
[M:3/4] E,2 [E,B,]4 |[M:1/4] [E,E]2 |[M:4/4][K:treble] E4 z4 | [D,D]6 z2 | %9
 [G,B,=F]4 [G,B,F]2 [G,DF]2 | [C,C]4 [C,C]2 [C,C]2 | [A,^CG]4 [A,CG]2 [A,CG]2 | %12
[M:3/4][K:bass] [D,D]6 |[M:1/4] [C,C]2 |[M:4/4][K:treble] [G,B,=F]4 [G,B,F]2 [G,B,F]2 | %15
 [C,C]2 [C,C]4 [C,G,]2 | [D,G,D]2 [D,F,C]4 [D,F,C]2 | [G,,G,]6 z2 |[M:6/8] .[G,,G,]2 F .E2 G | %19
 [G,,G,][G,,G,][G,,G,] [G,,G,] .[G,,G,]2 | [D,F,] [D,F,C]2- [D,F,C] [D,F,C]2 | %21
 [D,F,C][D,F,D][D,F,] [D,F,] .[D,F,]2 | z CB, [D,A,] [D,A,]2 | %23
 [D,C]/[D,C]/[K:treble][G,B,G][G,B,F] [G,B,E] [G,B,D]2 | %24
 [G,B,D]/[K:bass][G,B,D]/[C,A,]<[C,A,] [C,A,][D,G,D][D,F,D]- | %25
[M:5/8] [D,F,D]/[D,F,C]/[G,,G,]- [G,,G,]3 |] %26
V:3
 x8 | x8 | x8 | x8 | [^DB]4 c2 [DAB]2 |[M:3/4] x6 |[M:1/4] x2 |[M:4/4] x8 | x8 | x8 | x8 | x8 | %12
[M:3/4] x6 |[M:1/4] x2 |[M:4/4] x8 | x8 | x8 | x8 |[M:6/8] [B,D] B,2- B, .[G,B,D]2 | z .D2 z3 | %20
 x6 | .B2 D D .D2 | z F-[Fd] [Fc] [Fc]2 | x6 | x6 |[M:5/8] x5 |] %26
V:4
 x8 | x8 | x8 | x8 | F,6 z2 |[M:3/4] x6 |[M:1/4] x2 | %7
[M:4/4][K:treble] [A,G]3- [A,DG] [A,^CG]2 [A,CG]2 | x8 | x8 | x8 | x8 |[M:3/4][K:bass] x6 | %13
[M:1/4] x2 |[M:4/4][K:treble] x8 | x8 | x8 | x8 |[M:6/8] z [G,,G,]2- [G,,G,] G,,2 | x6 | x6 | x6 | %22
 z D,2 z3 | x[K:treble] x5 | x/[K:bass] x11/2 |[M:5/8] x5 |] %26

